X: 156
T:Credo Quarti toni
N: Derived from Jos1304-Credo_Quarti_toni.krn
C: Josquin des Prez
%%abc-version 2.0
%%abcx-abcm2ps-target-version 5.9.1 (29 Sep 2008)
%%abc-creator hum2abc beta
%%abcx-conversion-date 2019/02/12 16:15:45
%%abc-edited-by Jesse Rodin
%%abc-edited-by Jesse Rodin; Victoria Chang 2012/02/02
%%abcx-initial-encoding-date 2012/02/02/
%%humdrum-veritas 4132720809
%%humdrum-veritas-data 659572735
%%linebreak <none>
%%barnumbers 0
L: 1/4
M: 2/1
Q: 1/2=120
%%staves [1 2 3 4]
V: 1 clef=treble
V: 2 clef=treble-8
V: 3 clef=treble-8
V: 4 clef=bass
K: C
[V:1] A8- | 
[V:2] e8 :
[V:3] z4A4- :
[V:4] A,8 | 
[V:1] A6GF | 
[V:2] f8 | 
[V:3] A4_B4- | 
[V:4] F,4D,4 | 
[V:1] G4A4- | 
[V:2] e8 :
[V:3] B4A4- :
[V:4] E,4A,,4- | 
[V:1] A4E4 | 
[V:2] e8 | 
[V:3] A4A4- | 
[V:4] A,,2B,,2C,4 | 
[V:1] F4G2E2 | 
[V:2] d4c4 :
[V:3] A4G4 :
[V:4] D,2F,2E,4 | 
[V:1] FEDCB,4 | 
[V:2] d8 | 
[V:3] F4G4- | 
[V:4] D,4G,,4- | 
[V:1] D6D2 | 
[V:2] d4z4 :
[V:3] G4G4 :
[V:4] G,,2G,,2G,,4 | 
[V:1] D4E4 | 
[V:2] B4c4 | 
[V:3] z4E4 | 
[V:4] G,,4C,4 | 
[V:1] D4B,2D2- | 
[V:2] d8 :
[V:3] F4G4- :
[V:4] B,,4G,,4 | 
[V:1] DCB,A,G,4 | 
[V:2] d8 | 
[V:3] G4G4- | 
[V:4] G,6F,2 | 
[V:1] z8 | 
[V:2] c4d4 :
[V:3] G4F4 :
[V:4] E,4D,4 | 
[V:1] z8 | 
[V:2] e4d4- | 
[V:3] G4A4 | 
[V:4] G,4F,4 | 
[V:1] z8 | 
[V:2] d4^c4 :
[V:3] G8 :
[V:4] E,8 | 
[V:1] z8 | 
[V:2] d8 | 
[V:3] F4G4- | 
[V:4] D,4z2G,,2- | 
[V:1] G6G2 | 
[V:2] z4B4 :
[V:3] G4z4 :
[V:4] G,,2G,3F,E,D, | 
[V:1] G4A4 | 
[V:2] c4d4 | 
[V:3] E4F4 | 
[V:4] C,2E,2D,4 | 
[V:1] B4G2c2- | 
[V:2] d4e4- :
[V:3] G4G4 :
[V:4] G,,4C,4- | 
[V:1] cBAGF4 | 
[V:2] e4d4 | 
[V:3] A8 | 
[V:4] C,4D,4 | 
[V:1] z2E2F2D2- | 
[V:2] c4B4- :
[V:3] G4F4 :
[V:4] E,2C,2D,4 | 
[V:1] D2CB,C2DC | 
[V:2] B4A4 | 
[V:3] E8 | 
[V:4] z4A,,4 | 
[V:1] D4G,2C2- | 
[V:2] z4e4- :
[V:3] D4z4 :
[V:4] B,,4C,4 | 
[V:1] CB,A,G,F,4 | 
[V:2] e4f4- | 
[V:3] A8 | 
[V:4] A,,4D,4- | 
[V:1] z4G,4 | 
[V:2] f4e4- :
[V:3] _B8 :
[V:4] D,4E,4 | 
[V:1] A,2C4A,2 | 
[V:2] e4c4 | 
[V:3] A8 | 
[V:4] A,,2A,3G,F,E, | 
[V:1] B,CDB,C2G2 | 
[V:2] d4e4 :
[V:3] F4G4 :
[V:4] D,4C,4 | 
[V:1] FEDCB,2D2 | 
[V:2] d6B2 | 
[V:3] A4G4- | 
[V:4] F,4G,4 | 
[V:1] CB,A,G,A,4 | 
[V:2] c4d4- :
[V:3] G2E2^F4 :
[V:4] C,2E,2D,4 | 
[V:1] G,2_B3AGF | 
[V:2] d4z4 | 
[V:3] G8 | 
[V:4] G,,4z4 | 
[V:1] G2A4G2- | 
[V:2] z8 :
[V:3] z8 :
[V:4] E,2F,2G,4 | 
[V:1] G2F2E2D2- | 
[V:2] x8 | 
[V:3] x8 | 
[V:4] A,4G,2F,2 | 
[V:1] D2CB,A,G,D2- | 
[V:2] z8 :
[V:3] z8 :
[V:4] E,4F,4 | 
[V:1] DCC2B,4 | 
[V:2] x8 | 
[V:3] x8 | 
[V:4] E,2F,2G,4 | 
[V:1] A,B,CDE2F2- | 
[V:2] z8 :
[V:3] z8 :
[V:4] A,4z4 | 
[V:1] FEA4G2 | 
[V:2] x8 | 
[V:3] x8 | 
[V:4] A,4_B,4 | 
[V:1] c6B2 | 
[V:2] z8 :
[V:3] z8 :
[V:4] A,2A,2A,2G,2 | 
[V:1] A2GFE2D2- | 
[V:2] x8 | 
[V:3] x8 | 
[V:4] F,2G,2A,2_B,2- | 
[V:1] D2CB,A,4 | 
[V:2] z8 :
[V:3] z8 :
[V:4] B,2G,4^F,2 | 
[V:1] G,8 | 
[V:2] x4B4 | 
[V:3] x8 | 
[V:4] G,8 | 
[V:1] z8 | 
[V:2] c4d4- :
[V:3] E4F4 :
[V:4] z8 | 
[V:1] z8 | 
[V:2] d4B4 | 
[V:3] G8 | 
[V:4] z8 | 
[V:1] z8 | 
[V:2] c4d4- :
[V:3] E4F4 :
[V:4] z8 | 
[V:1] z4G4 | 
[V:2] d4e4 | 
[V:3] G8 | 
[V:4] G,,4C,4- | 
[V:1] c6Bc | 
[V:2] z4e4- :
[V:3] A4z4 :
[V:4] C,2B,,C,A,,2A,2- | 
[V:1] A4z2A2- | 
[V:2] e4f4- | 
[V:3] A8 | 
[V:4] A,G,A,2F,2D,2- | 
[V:1] A2GFG4 | 
[V:2] f4e4- :
[V:3] _B8 :
[V:4] D,C,D,2E,4 | 
[V:1] z2A4GF | 
[V:2] e4e4 | 
[V:3] A8 | 
[V:4] z4A,,4- | 
[V:1] E4z4 | 
[V:2] c4d4 :
[V:3] A4F4 :
[V:4] A,,4B,,4 | 
[V:1] z4z2D2 | 
[V:2] e4f2d2- | 
[V:3] G4A4 | 
[V:4] G,,4D,3C, | 
[V:1] F2G2A4 | 
[V:2] d2c2d4 :
[V:3] B2G4^F2 :
[V:4] D,2E,2D,4 | 
[V:1] B6AG | 
[V:2] z4d4- | 
[V:3] G4z4 | 
[V:4] G,,2G,3A,B,2- | 
[V:1] G4z4 | 
[V:2] d4c4 :
[V:3] G8 :
[V:4] B,A,G,F,E,4 | 
[V:1] A3Bcdc2- | 
[V:2] d4e4- | 
[V:3] F4G4 | 
[V:4] D,4C,4 | 
[V:1] cBAG^F3E | 
[V:2] e4d4 :
[V:3] A8 :
[V:4] A,,4D,4 | 
[V:1] G8 | 
[V:2] z4d4 | 
[V:3] G4z4 | 
[V:4] G,,8 | 
[V:1] z8 | 
[V:2] d4e4 :
[V:3] G4G4 :
[V:4] z8 | 
[V:1] z8 | 
[V:2] c4d4 | 
[V:3] A4F4 | 
[V:4] z8 | 
[V:1] z8 | 
[V:2] B6c2- :
[V:3] G4E4- :
[V:4] z8 | 
[V:1] z8 | 
[V:2] c4A4- | 
[V:3] E2F6 | 
[V:4] z8 | 
[V:1] z8 | 
[V:2] A2B6 :
[V:3] D6E2- :
[V:4] z8 | 
[V:1] z8 | 
[V:2] c6d2- | 
[V:3] E4F4- | 
[V:4] z8 | 
[V:1] z8 | 
[V:2] d4e4 :
[V:3] F2G6 :
[V:4] z8 | 
[V:1] c6B2 | 
[V:2] z4e4- | 
[V:3] A4z4 | 
[V:4] A,,6A,,2 | 
[V:1] A2GFE4 | 
[V:2] e4c4 :
[V:3] A8 :
[V:4] A,,4A,,4 | 
[V:1] D4G4 | 
[V:2] d4e4- | 
[V:3] F4G4 | 
[V:4] B,,4G,,4 | 
[V:1] E4F4 | 
[V:2] e4d4- :
[V:3] A8 :
[V:4] C,4D,4 | 
[V:1] G8 | 
[V:2] d4z4 | 
[V:3] G8 | 
[V:4] G,,4z2G,2- | 
[V:1] z4E2F2 | 
[V:2] z8 :
[V:3] z8 :
[V:4] G,A,B,G,A,2D,2 | 
[V:1] G4A4 | 
[V:2] x8 | 
[V:3] x8 | 
[V:4] E,2G,4^F,2 | 
[V:1] G4E4 | 
[V:2] z8 :
[V:3] z8 :
[V:4] G,4z2A,2- | 
[V:1] F2D2E2F2 | 
[V:2] x8 | 
[V:3] x8 | 
[V:4] A,2B,2C2A,2 | 
[V:1] G4E2F2 | 
[V:2] z8 :
[V:3] z8 :
[V:4] B,2C4A,2 | 
[V:1] G4A4 | 
[V:2] x8 | 
[V:3] x8 | 
[V:4] B,2C4A,2 | 
[V:1] z4A4 | 
[V:2] z8 :
[V:3] z8 :
[V:4] B,2C4D2- | 
[V:1] _B4A4 | 
[V:2] x8 | 
[V:3] x8 | 
[V:4] D2B,2C2D2- | 
[V:1] F2G2A4- | 
[V:2] z8 :
[V:3] z8 :
[V:4] D2B,2C2D2 | 
[V:1] A2G4^F2 | 
[V:2] x8 | 
[V:3] x8 | 
[V:4] G,4A,4 | 
[V:1] G8 | 
[V:2] z4B4 :
[V:3] z8 :
[V:4] G,8 | 
[V:1] z8 | 
[V:2] c4d4- | 
[V:3] E4F4 | 
[V:4] z8 | 
[V:1] z8 | 
[V:2] d4e4 :
[V:3] G8 :
[V:4] z2G,4F,E, | 
[V:1] z8 | 
[V:2] d2c2B4 | 
[V:3] A4G2F2 | 
[V:4] F,4G,4 | 
[V:1] z2G2F2A2- | 
[V:2] c4A4 :
[V:3] E4F4 :
[V:4] C,4z2F,2- | 
[V:1] A2GFE4 | 
[V:2] B4c4 | 
[V:3] D4E4 | 
[V:4] F,2E,D,C,4 | 
[V:1] D8 | 
[V:2] d4B4 :
[V:3] F4G4 :
[V:4] _B,,4z2G,2- | 
[V:1] z2G,2A,4 | 
[V:2] c4d4- | 
[V:3] E4F4 | 
[V:4] G,2F,E,D,4 | 
[V:1] B,4G,4 | 
[V:2] d4d4 :
[V:3] G8 :
[V:4] z2D3CB,2- | 
[V:1] z4z2G,2 | 
[V:2] d4c4 | 
[V:3] G4G4 | 
[V:4] B,A,G,F,E,4 | 
[V:1] A,2B,2C4 | 
[V:2] d4e4 :
[V:3] F4G4 :
[V:4] D,4C,4 | 
[V:1] z2C2(3D2E2F2 | 
[V:2] f8 | 
[V:3] A4_B4- | 
[V:4] F,4_B,,2_B,2- | 
[V:1] _B,2_B3AG2- | 
[V:2] d4e4- :
[V:3] B4G4 :
[V:4] B,A,G,3F,E,D, | 
[V:1] G2^FEF2GF | 
[V:2] e4d4- | 
[V:3] A8 | 
[V:4] C,4D,4 | 
[V:1] G8 ||  
[V:2] d8 ||  
[V:3] G8 ||  
[V:4] G,,8 ||  
[V:1]  [K:C] [K:clef=treble][M:2/1]G8 | 
[V:2]  [K:C] [K:clef=treble-8][M:2/1]B6c2 | 
[V:3]  [K:C] [K:clef=treble-8][M:2/1]G8 | 
[V:4]  [K:C] [K:clef=bass][M:2/1]G,8 | 
[V:1] G4_B4 | 
[V:2] d4d4 | 
[V:3] B4G4 | 
[V:4] G,4G,4 | 
[V:1] A4G4 | 
[V:2] d4d4 | 
[V:3] A4B4 | 
[V:4] F,4G,4 | 
[V:1] !fermata!F8 | 
[V:2] !fermata!d8 | 
[V:3] !fermata!A8 | 
[V:4] !fermata!D,8 | 
[V:1] A4A4 | 
[V:2] c4A4 | 
[V:3] A4D4 | 
[V:4] F,4F,4 | 
[V:1] D4E4 | 
[V:2] B4c4 | 
[V:3] G4G4 | 
[V:4] G,4E,4 | 
[V:1] F8 | 
[V:2] d8 | 
[V:3] A8 | 
[V:4] D,8 | 
[V:1] !fermata!G8 | 
[V:2] !fermata!e8 | 
[V:3] !fermata!c8 | 
[V:4] !fermata!C,8 | 
[V:1] C8 | 
[V:2] e8 | 
[V:3] G8 | 
[V:4] C,8 | 
[V:1] D8 | 
[V:2] f8 | 
[V:3] _B8 | 
[V:4] _B,,8 | 
[V:1] C6D2 | 
[V:2] e8 | 
[V:3] G8 | 
[V:4] C,8 | 
[V:1] E4F4 | 
[V:2] c4d4 | 
[V:3] A8 | 
[V:4] A,,4D,4 | 
[V:1] E4F4 | 
[V:2] e4d4- | 
[V:3] A4A4 | 
[V:4] C,4D,4 | 
[V:1] G6FE | 
[V:2] d4^c4 | 
[V:3] G8 | 
[V:4] E,8 | 
[V:1] !fermata!F8 | 
[V:2] !fermata!d8 | 
[V:3] !fermata!A8 | 
[V:4] !fermata!D,8 | 
[V:1] A8 | 
[V:2] e8 | 
[V:3] A8 | 
[V:4] A,,8 | 
[V:1] A4F4 | 
[V:2] f8 | 
[V:3] F8 | 
[V:4] D,8 | 
[V:1] G8 | 
[V:2] e8 | 
[V:3] c8 | 
[V:4] C,8 | 
[V:1] !fermata!A8 | 
[V:2] !fermata!c8 | 
[V:3] !fermata!A8 | 
[V:4] !fermata!F,8 | 
[V:1] G8 | 
[V:2] e8 | 
[V:3] c8 | 
[V:4] C,8 | 
[V:1] F8 | 
[V:2] d8 | 
[V:3] A8 | 
[V:4] D,8 | 
[V:1] E8 | 
[V:2] c8 | 
[V:3] A8 | 
[V:4] A,,8 | 
[V:1] D6CB, | 
[V:2] d8- | 
[V:3] F6G2 | 
[V:4] B,,6G,,2 | 
[V:1] B,8 ||  
[V:2] d8 ||  
[V:3] G8 ||  
[V:4] G,,8 ||  
[V:1]  [K:F] [K:clef=treble][M:2/1]G4A4 | 
[V:2]  [K:F] [K:clef=treble-8][M:2/1]z8 | 
[V:3]  [K:F] [K:clef=treble-8][M:2/1]z8 | 
[V:4]  [K:F] [K:clef=bass][M:2/1]z8 | 
[V:1] G2E2F2D2 | 
[V:2] z8 | 
[V:3] z8 | 
[V:4] C4D4 | 
[V:1] E2F2GFED | 
[V:2] z8 | 
[V:3] z8 | 
[V:4] C2A,2B,2G,2 | 
[V:1] C2D2E4 | 
[V:2] z8 | 
[V:3] z8 | 
[V:4] A,2B,2C4 | 
[V:1] D4z4 | 
[V:2] z8 | 
[V:3] z8 | 
[V:4] D8 | 
[V:1] A4B4 | 
[V:2] z8 | 
[V:3] z8 | 
[V:4] z8 | 
[V:1] A2F2G4 | 
[V:2] z8 | 
[V:3] z8 | 
[V:4] D4_E4 | 
[V:1] (3:2:5F4G2A2B2A2 | 
[V:2] z8 | 
[V:3] z8 | 
[V:4] D2B,2C4 | 
[V:1] (3:2:5B4G2F2G2F2 | 
[V:2] z8 | 
[V:3] z8 | 
[V:4] (3:2:5B,4C2D2_E2D2 | 
[V:1] G8 | 
[V:2] z8 | 
[V:3] z8 | 
[V:4] (3:2:5_E4C2B,2C2B,2 | 
[V:1] z4A4 | 
[V:2] z8 | 
[V:3] z8 | 
[V:4] C8 | 
[V:1] B2A4F2 | 
[V:2] z8 | 
[V:3] z8 | 
[V:4] z4D4 | 
[V:1] G2A2BAGF | 
[V:2] z8 | 
[V:3] z8 | 
[V:4] _E2D3CB,A, | 
[V:1] GFEDEDCB, | 
[V:2] z8 | 
[V:3] z8 | 
[V:4] B,2C3B,A,G, | 
[V:1]  [K:C] C_B,A,G,A,4 | 
[V:2]  [K:C] z8 | 
[V:3]  [K:C] z8 | 
[V:4]  [K:C] A,2G,4^F,2 | 
[V:1] G,8 | 
[V:2] d4d4 | 
[V:3] z2G4G2- | 
[V:4] G,4z2G,2 | 
[V:1] z8 | 
[V:2] e4d4 | 
[V:3] G2A4G2- | 
[V:4] E,2C,2D,C,B,,A,, | 
[V:1] G6F2- | 
[V:2] B4c2A2 | 
[V:3] G2E4F2 | 
[V:4] G,,4z2D,2- | 
[V:1] F2E2D4 | 
[V:2] B2c2d4 | 
[V:3] D2E2F2G2- | 
[V:4] D,2C,2B,,2G,,2 | 
[V:1] C8 | 
[V:2] e4z2e2- | 
[V:3] G2A4z2 | 
[V:4] C,4A,,3B,, | 
[V:1] z8 | 
[V:2] e2f4e2- | 
[V:3] A4_B4 | 
[V:4] C,2D,4E,2 | 
[V:1] c3_BAGG2- | 
[V:2] e2c2d2e2- | 
[V:3] A4F2G2 | 
[V:4] C,2F,4E,D, | 
[V:1] G2^F2G4- | 
[V:2] e2d4z2 | 
[V:3] A4G4 | 
[V:4] C,2D,2G,,4 | 
[V:1] G4z4 | 
[V:2] B2c2d4 | 
[V:3] z2E2F2G2- | 
[V:4] z4z2G,,2- | 
[V:1] z4z2G2- | 
[V:2] B2c2d4 | 
[V:3] G2E2F2G2- | 
[V:4] G,,2C,2B,,2G,,2 | 
[V:1] GFEDC2c2- | 
[V:2] e4z2e2- | 
[V:3] G2A4z2 | 
[V:4] C,4A,,2A,2- | 
[V:1] c_BA4G2 | 
[V:2] e2f4e2 | 
[V:3] A4_B4 | 
[V:4] A,G,F,E,D,2E,2 | 
[V:1] AGc3_BAG | 
[V:2] e2e4c2 | 
[V:3] A2A2A4 | 
[V:4] A,,4z2F,2- | 
[V:1] A2G3EF2 | 
[V:2] d2e4d2- | 
[V:3] F2G2A4 | 
[V:4] F,2E,D,C,2D,2 | 
[V:1] z2_B,4A,G, | 
[V:2] d2z2z4 | 
[V:3] G4z4 | 
[V:4] G,,4z2G,2 | 
[V:1] D4z2_B2- | 
[V:2] z8 | 
[V:3] z8 | 
[V:4] G,2G,2G,2G,2 | 
[V:1] B2AGd4 | 
[V:2] z8 | 
[V:3] z8 | 
[V:4] G,2G,2G,4 | 
[V:1] c4_B2A2 | 
[V:2] z8 | 
[V:3] z8 | 
[V:4] A,4G,2F,2 | 
[V:1] G4F3E | 
[V:2] z8 | 
[V:3] z8 | 
[V:4] E,4D,2F,2- | 
[V:1] D2C2_B,4 | 
[V:2] z8 | 
[V:3] z8 | 
[V:4] F,E,A,4G,2 | 
[V:1] A,4z2A2 | 
[V:2] z8 | 
[V:3] z8 | 
[V:4] A,8 | 
[V:1] _BABAB2A2- | 
[V:2] z8 | 
[V:3] z8 | 
[V:4] D4D2C2- | 
[V:1] AGG4^F2 | 
[V:2] z8 | 
[V:3] z8 | 
[V:4] C2_B,2A,4 | 
[V:1] G8 | 
[V:2] z8 | 
[V:3] z8 | 
[V:4] G,4E,2F,2 | 
[V:1] z2_B4AG | 
[V:2] z8 | 
[V:3] z8 | 
[V:4] G,4G,4 | 
[V:1] AG_B2AGB2- | 
[V:2] z8 | 
[V:3] z8 | 
[V:4] F,2G,2F,2G,2 | 
[V:1] BAG4^F2 | 
[V:2] z8 | 
[V:3] z8 | 
[V:4] F,2G,2A,4 | 
[V:1] G8 | 
[V:2] z4B2c2 | 
[V:3] z4z2E2 | 
[V:4] G,8 | 
[V:1] z8 | 
[V:2] d2d2d4 | 
[V:3] F2G2G2G2- | 
[V:4] z8 | 
[V:1] z8 | 
[V:2] d4e4 | 
[V:3] G2G4A2- | 
[V:4] z8 | 
[V:1] z2D4CB, | 
[V:2] c2d2B4 | 
[V:3] A2F2G2E2- | 
[V:4] z4G,,4 | 
[V:1] C2D2z4 | 
[V:2] A2z2e4 | 
[V:3] E2D2z2A2- | 
[V:4] A,,2B,,2C,4 | 
[V:1] z8 | 
[V:2] f4e2c2 | 
[V:3] A2_B4A2 | 
[V:4] D,4E,2F,2 | 
[V:1] z4z2A2 | 
[V:2] d2e4d2- | 
[V:3] F2G2A4 | 
[V:4] D,2G,3E,^F,2 | 
[V:1] B2G4FE | 
[V:2] d2B2c2d2- | 
[V:3] G4E2F2 | 
[V:4] G,4z2A,2 | 
[V:1] D4z4 | 
[V:2] d4d2c2 | 
[V:3] G6G2 | 
[V:4] B,2G,3F,E,2 | 
[V:1] z8 | 
[V:2] d2c2d2c2 | 
[V:3] F2G2F2G2 | 
[V:4] D,2E,2D,2E,2 | 
[V:1] z8 | 
[V:2] d2e4d2- | 
[V:3] F2G2A4 | 
[V:4] D,2G,3E,F,2 | 
[V:1] z4E2F2 | 
[V:2] d2z2z4 | 
[V:3] G4z4 | 
[V:4] G,2B,2A,4 | 
[V:1] G4G4 | 
[V:2] z8 | 
[V:3] z8 | 
[V:4] G,2C4B,A, | 
[V:1] G4A4 | 
[V:2] z8 | 
[V:3] z8 | 
[V:4] B,2C2F,4 | 
[V:1] G2F2E4- | 
[V:2] z8 | 
[V:3] z8 | 
[V:4] z2A,4G,F, | 
[V:1] E4z2F2- | 
[V:2] z8 | 
[V:3] z8 | 
[V:4] G,2A,2D,2D2- | 
[V:1] F2D2E2F2 | 
[V:2] z8 | 
[V:3] z8 | 
[V:4] D2CB,C2D2 | 
[V:1] G4A4 | 
[V:2] z8 | 
[V:3] z8 | 
[V:4] G,4z2D2- | 
[V:1] z4A4 | 
[V:2] z8 | 
[V:3] z8 | 
[V:4] D2CB,C2D2 | 
[V:1] _B2A4GF | 
[V:2] z8 | 
[V:3] z8 | 
[V:4] G,2C4B,A, | 
[V:1] G4z2F2- | 
[V:2] z8 | 
[V:3] z8 | 
[V:4] B,2C2F,2A,2- | 
[V:1] F2EDE4 | 
[V:2] z8 | 
[V:3] z8 | 
[V:4] A,2G,F,G,2A,2 | 
[V:1] z2D4CB, | 
[V:2] z8 | 
[V:3] z8 | 
[V:4] D,2F,4E,D, | 
[V:1] C4z2B,2- | 
[V:2] z8 | 
[V:3] z8 | 
[V:4] E,2F,2_B,,2D,2- | 
[V:1] B,2A,G,A,4 | 
[V:2] z8 | 
[V:3] z8 | 
[V:4] D,2C,_B,,C,2D,2 | 
[V:1] G,2G,4B2 | 
[V:2] z8 | 
[V:3] z8 | 
[V:4] G,,2G,3A,B,C | 
[V:1] B2B2B2A2- | 
[V:2] z8 | 
[V:3] z8 | 
[V:4] DG,D4C2- | 
[V:1] AGG4^F2 | 
[V:2] z8 | 
[V:3] z8 | 
[V:4] C2B,2A,4 | 
[V:1] G2G,3A,B,C | 
[V:2] z8 | 
[V:3] z8 | 
[V:4] G,4B,2B,2 | 
[V:1] DG,D4C2- | 
[V:2] z8 | 
[V:3] z8 | 
[V:4] B,2B,2B,2A,2- | 
[V:1] C2B,2A,4 | 
[V:2] z8 | 
[V:3] z8 | 
[V:4] A,G,G,4^F,2 | 
[V:1] G,8 | 
[V:2] z4B2c2 | 
[V:3] z4z2E2 | 
[V:4] G,8 | 
[V:1] z8 | 
[V:2] d4d4 | 
[V:3] F2G4G2- | 
[V:4] z8 | 
[V:1] z2G4E2 | 
[V:2] d4e4 | 
[V:3] G2G4A2- | 
[V:4] z4C,4 | 
[V:1] F2D4G2- | 
[V:2] c2d2B4 | 
[V:3] A2F2G2E2- | 
[V:4] A,,2B,,2G,,4 | 
[V:1] G2A4F2 | 
[V:2] e4f4 | 
[V:3] E2A4_B2- | 
[V:4] C,4D,4 | 
[V:1] G2E2F2D2 | 
[V:2] d2e2c2d2 | 
[V:3] B2G2A2F2 | 
[V:4] B,,2C,2A,,2B,,2 | 
[V:1] G2F2D4 | 
[V:2] e2f3ed2- | 
[V:3] G2A2_B3A | 
[V:4] G,,2D,4_B,,2 | 
[V:1] z8 | 
[V:2] d2c2d4 | 
[V:3] G4F2G2- | 
[V:4] _E,4D,2_B,2- | 
[V:1] z8 | 
[V:2] B2c2d4 | 
[V:3] G2E2F2G2- | 
[V:4] B,2A,G,A,2_B,2 | 
[V:1] z8 | 
[V:2] d4d2e2 | 
[V:3] G2G4G2 | 
[V:4] G,4z4 | 
[V:1] z8 | 
[V:2] c2d2B4 | 
[V:3] A2F2G2E2- | 
[V:4] z8 | 
[V:1] z8 | 
[V:2] c2A2B2c2 | 
[V:3] E2F2D2E2 | 
[V:4] z8 | 
[V:1] z8 | 
[V:2] d4e4 | 
[V:3] F2G4A2- | 
[V:4] z8 | 
[V:1] z8 | 
[V:2] c2d2e4 | 
[V:3] A2F2G2A2- | 
[V:4] z8 | 
[V:1] z4z2G,2 | 
[V:2] f2d4c2 | 
[V:3] A2_B2G4 | 
[V:4] D,4E,4 | 
[V:1] A,2B,2G,2_B2- | 
[V:2] d4z4 | 
[V:3] F2G4z2 | 
[V:4] D,2G,,2G,,4 | 
[V:1] BAG4^F2 | 
[V:2] z8 | 
[V:3] z8 | 
[V:4] G,4A,4 | 
[V:1] G4z2C2- | 
[V:2] z8 | 
[V:3] z8 | 
[V:4] G,4E,4 | 
[V:1] C2D2C2D2- | 
[V:2] z8 | 
[V:3] z8 | 
[V:4] F,2D,2E,2F,2 | 
[V:1] DCB,A,B,4 | 
[V:2] z8 | 
[V:3] z8 | 
[V:4] G,E,A,4^G,2 | 
[V:1] A,4z4 | 
[V:2] z8 | 
[V:3] z8 | 
[V:4] A,8 | 
[V:1] D2F3GAB | 
[V:2] z8 | 
[V:3] z8 | 
[V:4] z2D,2F,3G, | 
[V:1] c3BAGB2- | 
[V:2] z8 | 
[V:3] z8 | 
[V:4] A,B,C3B,G,2 | 
[V:1] BAG4^F2 | 
[V:2] z8 | 
[V:3] z8 | 
[V:4] B,2C2A,4 | 
[V:1] G4z4 | 
[V:2] z8 | 
[V:3] z8 | 
[V:4] G,4z4 | 
[V:1] G8- | 
[V:2] d8 | 
[V:3] z8 | 
[V:4] G,,8- | 
[V:1] G8 | 
[V:2] d8 | 
[V:3] G8 | 
[V:4] G,,8 | 
[V:1] D8 | 
[V:2] B8 | 
[V:3] G8 | 
[V:4] G,,8 | 
[V:1] E8 | 
[V:2] c8 | 
[V:3] E8 | 
[V:4] C,8 | 
[V:1] D4D4- | 
[V:2] B8 | 
[V:3] F8 | 
[V:4] D,8 | 
[V:1] D2^CB,C4 | 
[V:2] A8 | 
[V:3] E8 | 
[V:4] A,,8 | 
[V:1] D8 | 
[V:2] z8 | 
[V:3] D8 | 
[V:4] B,,8 | 
[V:1] G,4G4 | 
[V:2] e8 | 
[V:3] z8 | 
[V:4] C,8 | 
[V:1] F3E/D/A4 | 
[V:2] f8- | 
[V:3] A8 | 
[V:4] D,6C,2 | 
[V:1] z2A4GF | 
[V:2] f4e4 | 
[V:3] _B8- | 
[V:4] D,4E,4- | 
[V:1] G4A4- | 
[V:2] e8 | 
[V:3] B4A4 | 
[V:4] E,4A,,4- | 
[V:1] A4A,4 | 
[V:2] z8 | 
[V:3] A8 | 
[V:4] A,,8 | 
[V:1] C6D2 | 
[V:2] e8- | 
[V:3] z8 | 
[V:4] A,,6B,,2 | 
[V:1] E4F4- | 
[V:2] e4d4- | 
[V:3] A8- | 
[V:4] C,4D,4- | 
[V:1] F2GA_B4 | 
[V:2] d8 | 
[V:3] A4G4- | 
[V:4] D,4G,,4 | 
[V:1] G2c4B2 | 
[V:2] c8- | 
[V:3] G8 | 
[V:4] C,8 | 
[V:1] A2G2F2E2 | 
[V:2] c4d4- | 
[V:3] F8- | 
[V:4] F,,4_B,,4- | 
[V:1] D2C2B,2A,2 | 
[V:2] d8 | 
[V:3] F4G4- | 
[V:4] B,,4G,,4 | 
[V:1] G,8 | 
[V:2] e4d4 | 
[V:3] G8 | 
[V:4] C,4B,,4 | 
[V:1] z4G4 | 
[V:2] c4B4 | 
[V:3] A4G4 | 
[V:4] C,4G,,4 | 
[V:1] A2B2c2A2- | 
[V:2] A8- | 
[V:3] F4E4 | 
[V:4] D,4C,4 | 
[V:1] AG^FEF4 | 
[V:2] A8 | 
[V:3] D8- | 
[V:4] D,8 | 
[V:1] G8- | 
[V:2] B8- | 
[V:3] D8 | 
[V:4] G,,8 | 
[V:1] G4E4 | 
[V:2] B8 | 
[V:3] E8- | 
[V:4] G,8- | 
[V:1] E8- | 
[V:2] B8- | 
[V:3] E8- | 
[V:4] G,4E,4 | 
[V:1] E8 |]  
[V:2] B8 |]  
[V:3] E8 |]  
[V:4] E,8 |]  



